icons/filled/brightness-down.svg

<svg xmlns="http://www.w3.org/2000/svg" width="24" height="24" viewBox="0 0 24 24" fill="currentColor"><path d="M12 8a4 4 0 1 1 -3.995 4.2l-.005 -.2l.005 -.2a4 4 0 0 1 3.995 -3.8z"/><path d="M12 4a1 1 0 0 1 .993 .883l.007 .127a1 1 0 0 1 -1.993 .117l-.007 -.127a1 1 0 0 1 1 -1z"/><path d="M17 6a1 1 0 0 1 .993 .883l.007 .127a1 1 0 0 1 -1.993 .117l-.007 -.127a1 1 0 0 1 1 -1z"/><path d="M19 11a1 1 0 0 1 .993 .883l.007 .127a1 1 0 0 1 -1.993 .117l-.007 -.127a1 1 0 0 1 1 -1z"/><path d="M17 16a1 1 0 0 1 .993 .883l.007 .127a1 1 0 0 1 -1.993 .117l-.007 -.127a1 1 0 0 1 1 -1z"/><path d="M12 18a1 1 0 0 1 .993 .883l.007 .127a1 1 0 0 1 -1.993 .117l-.007 -.127a1 1 0 0 1 1 -1z"/><path d="M7 16a1 1 0 0 1 .993 .883l.007 .127a1 1 0 0 1 -1.993 .117l-.007 -.127a1 1 0 0 1 1 -1z"/><path d="M5 11a1 1 0 0 1 .993 .883l.007 .127a1 1 0 0 1 -1.993 .117l-.007 -.127a1 1 0 0 1 1 -1z"/><path d="M7 6a1 1 0 0 1 .993 .883l.007 .127a1 1 0 0 1 -1.993 .117l-.007 -.127a1 1 0 0 1 1 -1z"/></svg>

<svg xmlns="http://www.w3.org/2000/svg" width="24" height="24" fill="currentColor"><path d="M12 8a4 4 0 1 1-3.995 4.2L8 12l.005-.2A4 4 0 0 1 12 8M12 4a1 1 0 0 1 .993.883L13 5.01a1 1 0 0 1-1.993.117L11 5a1 1 0 0 1 1-1M17 6a1 1 0 0 1 .993.883L18 7.01a1 1 0 0 1-1.993.117L16 7a1 1 0 0 1 1-1M19 11a1 1 0 0 1 .993.883l.007.127a1 1 0 0 1-1.993.117L18 12a1 1 0 0 1 1-1M17 16a1 1 0 0 1 .993.883l.007.127a1 1 0 0 1-1.993.117L16 17a1 1 0 0 1 1-1M12 18a1 1 0 0 1 .993.883l.007.127a1 1 0 0 1-1.993.117L11 19a1 1 0 0 1 1-1M7 16a1 1 0 0 1 .993.883L8 17.01a1 1 0 0 1-1.993.117L6 17a1 1 0 0 1 1-1M5 11a1 1 0 0 1 .993.883L6 12.01a1 1 0 0 1-1.993.117L4 12a1 1 0 0 1 1-1M7 6a1 1 0 0 1 .993.883L8 7.01a1 1 0 0 1-1.993.117L6 7a1 1 0 0 1 1-1"/></svg>
